images/50536370.svg

<?xml version="1.0" encoding="UTF-8"?>
<svg xmlns="http://www.w3.org/2000/svg" xmlns:xlink="http://www.w3.org/1999/xlink" width="300pt" height="300pt" viewBox="0 0 300 300" version="1.1">
<defs>
<g>
<symbol overflow="visible" id="glyph0-0">
<path style="stroke:none;" d="M 0.59375 2.125 L 0.59375 -8.46875 L 6.59375 -8.46875 L 6.59375 2.125 Z M 1.265625 1.453125 L 5.9375 1.453125 L 5.9375 -7.78125 L 1.265625 -7.78125 Z M 1.265625 1.453125 "/>
</symbol>
<symbol overflow="visible" id="glyph0-1">
<path style="stroke:none;" d="M 1.171875 -8.75 L 6.203125 -8.75 L 6.203125 -7.75 L 2.359375 -7.75 L 2.359375 -5.171875 L 5.828125 -5.171875 L 5.828125 -4.171875 L 2.359375 -4.171875 L 2.359375 0 L 1.171875 0 Z M 1.171875 -8.75 "/>
</symbol>
<symbol overflow="visible" id="glyph0-2">
<path style="stroke:none;" d="M 1.171875 -8.75 L 2.765625 -8.75 L 6.65625 -1.4375 L 6.65625 -8.75 L 7.796875 -8.75 L 7.796875 0 L 6.203125 0 L 2.328125 -7.3125 L 2.328125 0 L 1.171875 0 Z M 1.171875 -8.75 "/>
</symbol>
<symbol overflow="visible" id="glyph0-3">
<path style="stroke:none;" d="M 4.734375 -7.953125 C 3.867188 -7.953125 3.179688 -7.628906 2.671875 -6.984375 C 2.171875 -6.347656 1.921875 -5.472656 1.921875 -4.359375 C 1.921875 -3.265625 2.171875 -2.394531 2.671875 -1.75 C 3.179688 -1.113281 3.867188 -0.796875 4.734375 -0.796875 C 5.585938 -0.796875 6.265625 -1.113281 6.765625 -1.75 C 7.273438 -2.394531 7.53125 -3.265625 7.53125 -4.359375 C 7.53125 -5.472656 7.273438 -6.347656 6.765625 -6.984375 C 6.265625 -7.628906 5.585938 -7.953125 4.734375 -7.953125 Z M 4.734375 -8.90625 C 5.953125 -8.90625 6.925781 -8.492188 7.65625 -7.671875 C 8.394531 -6.847656 8.765625 -5.742188 8.765625 -4.359375 C 8.765625 -2.984375 8.394531 -1.882812 7.65625 -1.0625 C 6.925781 -0.238281 5.953125 0.171875 4.734375 0.171875 C 3.503906 0.171875 2.519531 -0.238281 1.78125 -1.0625 C 1.039062 -1.882812 0.671875 -2.984375 0.671875 -4.359375 C 0.671875 -5.742188 1.039062 -6.847656 1.78125 -7.671875 C 2.519531 -8.492188 3.503906 -8.90625 4.734375 -8.90625 Z M 4.734375 -8.90625 "/>
</symbol>
<symbol overflow="visible" id="glyph0-4">
<path style="stroke:none;" d="M 1.171875 -8.75 L 2.359375 -8.75 L 2.359375 -5.15625 L 6.65625 -5.15625 L 6.65625 -8.75 L 7.84375 -8.75 L 7.84375 0 L 6.65625 0 L 6.65625 -4.171875 L 2.359375 -4.171875 L 2.359375 0 L 1.171875 0 Z M 1.171875 -8.75 "/>
</symbol>
</g>
</defs>
<g id="surface27373">
<rect x="0" y="0" width="300" height="300" style="fill:rgb(100%,100%,100%);fill-opacity:1;stroke:none;"/>
<path style="fill:none;stroke-width:1.2;stroke-linecap:butt;stroke-linejoin:miter;stroke:rgb(20%,80%,80%);stroke-opacity:1;stroke-miterlimit:10;" d="M 148.574219 239.160156 L 139.710938 227.835938 "/>
<path style="fill:none;stroke-width:1.2;stroke-linecap:butt;stroke-linejoin:miter;stroke:rgb(0%,0%,0%);stroke-opacity:1;stroke-miterlimit:10;" d="M 139.710938 227.835938 L 130.84375 216.511719 "/>
<path style=" stroke:none;fill-rule:nonzero;fill:rgb(100%,100%,100%);fill-opacity:1;" d="M 145.574219 232.160156 L 152.574219 232.160156 L 152.574219 246.160156 L 145.574219 246.160156 Z M 145.574219 232.160156 "/>
<g style="fill:rgb(20%,80%,80%);fill-opacity:1;">
  <use xlink:href="#glyph0-1" x="145.574219" y="243.298828"/>
</g>
<path style="fill:none;stroke-width:1.2;stroke-linecap:butt;stroke-linejoin:miter;stroke:rgb(0%,0%,0%);stroke-opacity:1;stroke-miterlimit:10;" d="M 130.84375 216.511719 L 102.367188 220.542969 "/>
<path style="fill:none;stroke-width:1.2;stroke-linecap:butt;stroke-linejoin:miter;stroke:rgb(0%,0%,0%);stroke-opacity:1;stroke-miterlimit:10;" d="M 127.046875 210.214844 L 104.265625 213.4375 "/>
<path style="fill:none;stroke-width:1.2;stroke-linecap:butt;stroke-linejoin:miter;stroke:rgb(0%,0%,0%);stroke-opacity:1;stroke-miterlimit:10;" d="M 141.59375 189.832031 L 130.84375 216.511719 "/>
<path style="fill:none;stroke-width:1.2;stroke-linecap:butt;stroke-linejoin:miter;stroke:rgb(0%,0%,0%);stroke-opacity:1;stroke-miterlimit:10;" d="M 102.367188 220.542969 L 84.632812 197.894531 "/>
<path style="fill:none;stroke-width:1.2;stroke-linecap:butt;stroke-linejoin:miter;stroke:rgb(0%,0%,0%);stroke-opacity:1;stroke-miterlimit:10;" d="M 84.632812 197.894531 L 95.382812 171.214844 "/>
<path style="fill:none;stroke-width:1.2;stroke-linecap:butt;stroke-linejoin:miter;stroke:rgb(0%,0%,0%);stroke-opacity:1;stroke-miterlimit:10;" d="M 91.988281 197.757812 L 100.585938 176.414062 "/>
<path style="fill:none;stroke-width:1.2;stroke-linecap:butt;stroke-linejoin:miter;stroke:rgb(0%,0%,0%);stroke-opacity:1;stroke-miterlimit:10;" d="M 95.382812 171.214844 L 123.863281 167.183594 "/>
<path style="fill:none;stroke-width:1.2;stroke-linecap:butt;stroke-linejoin:miter;stroke:rgb(0%,0%,0%);stroke-opacity:1;stroke-miterlimit:10;" d="M 95.382812 171.214844 L 77.652344 148.566406 "/>
<path style="fill:none;stroke-width:1.2;stroke-linecap:butt;stroke-linejoin:miter;stroke:rgb(0%,0%,0%);stroke-opacity:1;stroke-miterlimit:10;" d="M 123.863281 167.183594 L 141.59375 189.832031 "/>
<path style="fill:none;stroke-width:1.2;stroke-linecap:butt;stroke-linejoin:miter;stroke:rgb(0%,0%,0%);stroke-opacity:1;stroke-miterlimit:10;" d="M 120.304688 173.621094 L 134.492188 191.738281 "/>
<path style="fill:none;stroke-width:1.2;stroke-linecap:butt;stroke-linejoin:miter;stroke:rgb(0%,0%,0%);stroke-opacity:1;stroke-miterlimit:10;" d="M 77.652344 148.566406 L 63.28125 149.082031 "/>
<path style="fill:none;stroke-width:1.2;stroke-linecap:butt;stroke-linejoin:miter;stroke:rgb(0%,0%,100%);stroke-opacity:1;stroke-miterlimit:10;" d="M 63.28125 149.082031 L 48.90625 149.601562 "/>
<path style="fill:none;stroke-width:1.2;stroke-linecap:butt;stroke-linejoin:miter;stroke:rgb(0%,0%,0%);stroke-opacity:1;stroke-miterlimit:10;" d="M 74.535156 141.90625 L 63.039062 142.320312 "/>
<path style="fill:none;stroke-width:1.2;stroke-linecap:butt;stroke-linejoin:miter;stroke:rgb(0%,0%,100%);stroke-opacity:1;stroke-miterlimit:10;" d="M 63.039062 142.320312 L 51.539062 142.734375 "/>
<path style="fill:none;stroke-width:1.2;stroke-linecap:butt;stroke-linejoin:miter;stroke:rgb(0%,0%,0%);stroke-opacity:1;stroke-miterlimit:10;" d="M 85.554688 120.910156 L 77.652344 148.566406 "/>
<path style="fill:none;stroke-width:1.2;stroke-linecap:butt;stroke-linejoin:miter;stroke:rgb(0%,0%,100%);stroke-opacity:1;stroke-miterlimit:10;" d="M 48.90625 149.601562 L 43.976562 136.089844 "/>
<path style="fill:none;stroke-width:1.2;stroke-linecap:butt;stroke-linejoin:miter;stroke:rgb(100%,0%,0%);stroke-opacity:1;stroke-miterlimit:10;" d="M 43.976562 136.089844 L 39.042969 122.582031 "/>
<path style=" stroke:none;fill-rule:nonzero;fill:rgb(100%,100%,100%);fill-opacity:1;" d="M 44.90625 142.601562 L 53.90625 142.601562 L 53.90625 156.601562 L 44.90625 156.601562 Z M 44.90625 142.601562 "/>
<g style="fill:rgb(0%,0%,100%);fill-opacity:1;">
  <use xlink:href="#glyph0-2" x="44.90625" y="153.740234"/>
</g>
<path style="fill:none;stroke-width:1.2;stroke-linecap:butt;stroke-linejoin:miter;stroke:rgb(100%,0%,0%);stroke-opacity:1;stroke-miterlimit:10;" d="M 39.042969 122.582031 L 50.367188 113.714844 "/>
<path style="fill:none;stroke-width:1.2;stroke-linecap:butt;stroke-linejoin:miter;stroke:rgb(0%,0%,0%);stroke-opacity:1;stroke-miterlimit:10;" d="M 50.367188 113.714844 L 61.691406 104.851562 "/>
<path style=" stroke:none;fill-rule:nonzero;fill:rgb(100%,100%,100%);fill-opacity:1;" d="M 34.042969 115.582031 L 44.042969 115.582031 L 44.042969 129.582031 L 34.042969 129.582031 Z M 34.042969 115.582031 "/>
<g style="fill:rgb(100%,0%,0%);fill-opacity:1;">
  <use xlink:href="#glyph0-3" x="34.042969" y="126.720703"/>
</g>
<path style="fill:none;stroke-width:1.2;stroke-linecap:butt;stroke-linejoin:miter;stroke:rgb(0%,0%,0%);stroke-opacity:1;stroke-miterlimit:10;" d="M 61.691406 104.851562 L 60.660156 76.105469 "/>
<path style="fill:none;stroke-width:1.2;stroke-linecap:butt;stroke-linejoin:miter;stroke:rgb(0%,0%,0%);stroke-opacity:1;stroke-miterlimit:10;" d="M 61.691406 104.851562 L 85.554688 120.910156 "/>
<path style="fill:none;stroke-width:1.2;stroke-linecap:butt;stroke-linejoin:miter;stroke:rgb(0%,0%,0%);stroke-opacity:1;stroke-miterlimit:10;" d="M 60.300781 112.070312 L 79.386719 124.917969 "/>
<path style="fill:none;stroke-width:1.2;stroke-linecap:butt;stroke-linejoin:miter;stroke:rgb(0%,0%,0%);stroke-opacity:1;stroke-miterlimit:10;" d="M 60.660156 76.105469 L 85.035156 60.839844 "/>
<path style="fill:none;stroke-width:1.2;stroke-linecap:butt;stroke-linejoin:miter;stroke:rgb(0%,0%,0%);stroke-opacity:1;stroke-miterlimit:10;" d="M 60.660156 76.105469 L 35.25 62.628906 "/>
<path style="fill:none;stroke-width:1.2;stroke-linecap:butt;stroke-linejoin:miter;stroke:rgb(0%,0%,0%);stroke-opacity:1;stroke-miterlimit:10;" d="M 85.554688 120.910156 L 112.570312 111.046875 "/>
<path style="fill:none;stroke-width:1.2;stroke-linecap:butt;stroke-linejoin:miter;stroke:rgb(0%,0%,0%);stroke-opacity:1;stroke-miterlimit:10;" d="M 112.570312 111.046875 L 134.625 129.515625 "/>
<path style="fill:none;stroke-width:1.2;stroke-linecap:butt;stroke-linejoin:miter;stroke:rgb(0%,0%,0%);stroke-opacity:1;stroke-miterlimit:10;" d="M 119.121094 107.703125 L 136.761719 122.476562 "/>
<path style="fill:none;stroke-width:1.2;stroke-linecap:butt;stroke-linejoin:miter;stroke:rgb(0%,0%,0%);stroke-opacity:1;stroke-miterlimit:10;" d="M 117.539062 82.714844 L 112.570312 111.046875 "/>
<path style="fill:none;stroke-width:1.2;stroke-linecap:butt;stroke-linejoin:miter;stroke:rgb(0%,0%,0%);stroke-opacity:1;stroke-miterlimit:10;" d="M 134.625 129.515625 L 161.640625 119.648438 "/>
<path style="fill:none;stroke-width:1.2;stroke-linecap:butt;stroke-linejoin:miter;stroke:rgb(0%,0%,0%);stroke-opacity:1;stroke-miterlimit:10;" d="M 161.640625 119.648438 L 164.125 105.484375 "/>
<path style="fill:none;stroke-width:1.2;stroke-linecap:butt;stroke-linejoin:miter;stroke:rgb(0%,0%,100%);stroke-opacity:1;stroke-miterlimit:10;" d="M 164.125 105.484375 L 166.609375 91.320312 "/>
<path style="fill:none;stroke-width:1.2;stroke-linecap:butt;stroke-linejoin:miter;stroke:rgb(0%,0%,0%);stroke-opacity:1;stroke-miterlimit:10;" d="M 155.472656 115.648438 L 157.460938 104.316406 "/>
<path style="fill:none;stroke-width:1.2;stroke-linecap:butt;stroke-linejoin:miter;stroke:rgb(0%,0%,100%);stroke-opacity:1;stroke-miterlimit:10;" d="M 157.460938 104.316406 L 159.445312 92.984375 "/>
<path style="fill:none;stroke-width:1.2;stroke-linecap:butt;stroke-linejoin:miter;stroke:rgb(0%,0%,0%);stroke-opacity:1;stroke-miterlimit:10;" d="M 161.640625 119.648438 L 172.667969 128.882812 "/>
<path style="fill:none;stroke-width:1.2;stroke-linecap:butt;stroke-linejoin:miter;stroke:rgb(0%,0%,100%);stroke-opacity:1;stroke-miterlimit:10;" d="M 172.667969 128.882812 L 183.695312 138.117188 "/>
<path style="fill:none;stroke-width:1.2;stroke-linecap:butt;stroke-linejoin:miter;stroke:rgb(0%,0%,100%);stroke-opacity:1;stroke-miterlimit:10;" d="M 166.609375 91.320312 L 155.582031 82.085938 "/>
<path style="fill:none;stroke-width:1.2;stroke-linecap:butt;stroke-linejoin:miter;stroke:rgb(0%,0%,0%);stroke-opacity:1;stroke-miterlimit:10;" d="M 155.582031 82.085938 L 144.558594 72.851562 "/>
<path style=" stroke:none;fill-rule:nonzero;fill:rgb(100%,100%,100%);fill-opacity:1;" d="M 162.609375 84.320312 L 171.609375 84.320312 L 171.609375 98.320312 L 162.609375 98.320312 Z M 162.609375 84.320312 "/>
<g style="fill:rgb(0%,0%,100%);fill-opacity:1;">
  <use xlink:href="#glyph0-2" x="162.609375" y="95.458984"/>
</g>
<path style="fill:none;stroke-width:1.2;stroke-linecap:butt;stroke-linejoin:miter;stroke:rgb(0%,0%,0%);stroke-opacity:1;stroke-miterlimit:10;" d="M 144.558594 72.851562 L 117.539062 82.714844 "/>
<path style="fill:none;stroke-width:1.2;stroke-linecap:butt;stroke-linejoin:miter;stroke:rgb(0%,0%,0%);stroke-opacity:1;stroke-miterlimit:10;" d="M 144.175781 80.195312 L 122.5625 88.085938 "/>
<path style="fill:none;stroke-width:1.2;stroke-linecap:butt;stroke-linejoin:miter;stroke:rgb(0%,0%,100%);stroke-opacity:1;stroke-miterlimit:10;" d="M 183.695312 138.117188 L 197.203125 133.183594 "/>
<path style="fill:none;stroke-width:1.2;stroke-linecap:butt;stroke-linejoin:miter;stroke:rgb(0%,0%,0%);stroke-opacity:1;stroke-miterlimit:10;" d="M 197.203125 133.183594 L 210.710938 128.25 "/>
<path style=" stroke:none;fill-rule:nonzero;fill:rgb(100%,100%,100%);fill-opacity:1;" d="M 174.695312 131.117188 L 192.695312 131.117188 L 192.695312 145.117188 L 174.695312 145.117188 Z M 174.695312 131.117188 "/>
<g style="fill:rgb(0%,0%,100%);fill-opacity:1;">
  <use xlink:href="#glyph0-2" x="174.695312" y="142.255859"/>
  <use xlink:href="#glyph0-4" x="183.671875" y="142.255859"/>
</g>
<path style="fill:none;stroke-width:1.2;stroke-linecap:butt;stroke-linejoin:miter;stroke:rgb(0%,0%,0%);stroke-opacity:1;stroke-miterlimit:10;" d="M 210.710938 128.25 L 232.765625 146.71875 "/>
<path style="fill:none;stroke-width:1.2;stroke-linecap:butt;stroke-linejoin:miter;stroke:rgb(0%,0%,0%);stroke-opacity:1;stroke-miterlimit:10;" d="M 215.679688 99.921875 L 210.710938 128.25 "/>
<path style="fill:none;stroke-width:1.2;stroke-linecap:butt;stroke-linejoin:miter;stroke:rgb(0%,0%,0%);stroke-opacity:1;stroke-miterlimit:10;" d="M 232.765625 146.71875 L 259.785156 136.855469 "/>
<path style="fill:none;stroke-width:1.2;stroke-linecap:butt;stroke-linejoin:miter;stroke:rgb(0%,0%,0%);stroke-opacity:1;stroke-miterlimit:10;" d="M 259.785156 136.855469 L 262.265625 122.6875 "/>
<path style="fill:none;stroke-width:1.2;stroke-linecap:butt;stroke-linejoin:miter;stroke:rgb(100%,0%,0%);stroke-opacity:1;stroke-miterlimit:10;" d="M 262.265625 122.6875 L 264.75 108.523438 "/>
<path style="fill:none;stroke-width:1.2;stroke-linecap:butt;stroke-linejoin:miter;stroke:rgb(100%,0%,0%);stroke-opacity:1;stroke-miterlimit:10;" d="M 264.75 108.523438 L 253.722656 99.289062 "/>
<path style="fill:none;stroke-width:1.2;stroke-linecap:butt;stroke-linejoin:miter;stroke:rgb(0%,0%,0%);stroke-opacity:1;stroke-miterlimit:10;" d="M 253.722656 99.289062 L 242.699219 90.058594 "/>
<path style=" stroke:none;fill-rule:nonzero;fill:rgb(100%,100%,100%);fill-opacity:1;" d="M 259.75 101.523438 L 269.75 101.523438 L 269.75 115.523438 L 259.75 115.523438 Z M 259.75 101.523438 "/>
<g style="fill:rgb(100%,0%,0%);fill-opacity:1;">
  <use xlink:href="#glyph0-3" x="259.75" y="112.662109"/>
</g>
<path style="fill:none;stroke-width:1.2;stroke-linecap:butt;stroke-linejoin:miter;stroke:rgb(0%,0%,0%);stroke-opacity:1;stroke-miterlimit:10;" d="M 242.699219 90.058594 L 215.679688 99.921875 "/>
</g>
</svg>

<svg xmlns="http://www.w3.org/2000/svg" xmlns:xlink="http://www.w3.org/1999/xlink" width="300pt" height="300pt" viewBox="0 0 300 300"><defs><symbol overflow="visible"><path d="M.594 2.125V-8.47h6V2.126zm.672-.672h4.671V-7.78h-4.67zm0 0"/></symbol><symbol overflow="visible" id="a"><path d="M1.172-8.75h5.03v1H2.36v2.578h3.468v1h-3.47V0H1.173zm0 0"/></symbol><symbol overflow="visible" id="b"><path d="M1.172-8.75h1.594l3.89 7.313V-8.75h1.14V0H6.204L2.328-7.313V0H1.172zm0 0"/></symbol><symbol overflow="visible" id="c"><path d="M4.734-7.953c-.867 0-1.554.324-2.062.97-.5.635-.75 1.51-.75 2.624 0 1.094.25 1.965.75 2.61.508.637 1.195.953 2.062.953.852 0 1.532-.316 2.032-.953.507-.645.765-1.516.765-2.61 0-1.113-.257-1.988-.764-2.624-.5-.645-1.18-.97-2.032-.97zm0-.953c1.22 0 2.192.414 2.922 1.234.74.824 1.11 1.93 1.11 3.313 0 1.376-.37 2.477-1.11 3.298C6.926-.24 5.953.17 4.734.17c-1.23 0-2.214-.41-2.953-1.234C1.04-1.882.673-2.984.673-4.36c0-1.382.367-2.488 1.11-3.312.738-.82 1.722-1.234 2.952-1.234zm0 0"/></symbol><symbol overflow="visible" id="d"><path d="M1.172-8.75H2.36v3.594h4.296V-8.75h1.188V0H6.656v-4.172H2.36V0H1.17zm0 0"/></symbol></defs><g><path fill="#fff" d="M0 0h300v300H0z"/><path d="M148.574 239.16l-8.863-11.324" stroke-width="1.2" stroke="#3cc" stroke-miterlimit="10" fill="none"/><path d="M139.71 227.836l-8.866-11.324" stroke-width="1.2" stroke="#000" stroke-miterlimit="10" fill="none"/><path d="M145.574 232.16h7v14h-7zm0 0" fill="#fff"/><use xlink:href="#a" x="145.574" y="243.299" fill="#3cc"/><path d="M130.844 216.512l-28.477 4.03M127.047 210.215l-22.78 3.222M141.594 189.832l-10.75 26.68M102.367 220.543l-17.734-22.648M84.633 197.895l10.75-26.68M91.988 197.758l8.598-21.344M95.383 171.215l28.48-4.03M95.383 171.215l-17.73-22.65M123.863 167.184l17.73 22.648M120.305 173.62l14.187 18.118M77.652 148.566l-14.37.516" stroke-width="1.2" stroke="#000" stroke-miterlimit="10" fill="none"/><path d="M63.28 149.082l-14.374.52" stroke-width="1.2" stroke="#00f" stroke-miterlimit="10" fill="none"/><path d="M74.535 141.906l-11.496.414" stroke-width="1.2" stroke="#000" stroke-miterlimit="10" fill="none"/><path d="M63.04 142.32l-11.5.414" stroke-width="1.2" stroke="#00f" stroke-miterlimit="10" fill="none"/><path d="M85.555 120.91l-7.903 27.656" stroke-width="1.2" stroke="#000" stroke-miterlimit="10" fill="none"/><path d="M48.906 149.602l-4.93-13.512" stroke-width="1.2" stroke="#00f" stroke-miterlimit="10" fill="none"/><path d="M43.977 136.09l-4.934-13.508" stroke-width="1.2" stroke="#f00" stroke-miterlimit="10" fill="none"/><path d="M44.906 142.602h9v14h-9zm0 0" fill="#fff"/><use xlink:href="#b" x="44.906" y="153.74" fill="#00f"/><path d="M39.043 122.582l11.324-8.867" stroke-width="1.2" stroke="#f00" stroke-miterlimit="10" fill="none"/><path d="M50.367 113.715l11.324-8.863" stroke-width="1.2" stroke="#000" stroke-miterlimit="10" fill="none"/><path d="M34.043 115.582h10v14h-10zm0 0" fill="#fff"/><use xlink:href="#c" x="34.043" y="126.721" fill="#f00"/><path d="M61.69 104.852l-1.03-28.747M61.69 104.852l23.865 16.058M60.3 112.07l19.087 12.848M60.66 76.105L85.035 60.84M60.66 76.105L35.25 62.63M85.555 120.91l27.015-9.863M112.57 111.047l22.055 18.47M119.12 107.703l17.642 14.774M117.54 82.715l-4.97 28.332M134.625 129.516l27.016-9.868M161.64 119.648l2.485-14.164" stroke-width="1.2" stroke="#000" stroke-miterlimit="10" fill="none"/><path d="M164.125 105.484l2.484-14.164" stroke-width="1.2" stroke="#00f" stroke-miterlimit="10" fill="none"/><path d="M155.473 115.648l1.988-11.332" stroke-width="1.2" stroke="#000" stroke-miterlimit="10" fill="none"/><path d="M157.46 104.316l1.985-11.332" stroke-width="1.2" stroke="#00f" stroke-miterlimit="10" fill="none"/><path d="M161.64 119.648l11.028 9.235" stroke-width="1.2" stroke="#000" stroke-miterlimit="10" fill="none"/><path d="M172.668 128.883l11.027 9.234M166.61 91.32l-11.028-9.234" stroke-width="1.2" stroke="#00f" stroke-miterlimit="10" fill="none"/><path d="M155.582 82.086l-11.023-9.234" stroke-width="1.2" stroke="#000" stroke-miterlimit="10" fill="none"/><path d="M162.61 84.32h9v14h-9zm0 0" fill="#fff"/><use xlink:href="#b" x="162.609" y="95.459" fill="#00f"/><path d="M144.56 72.852l-27.02 9.863M144.176 80.195l-21.613 7.89" stroke-width="1.2" stroke="#000" stroke-miterlimit="10" fill="none"/><path d="M183.695 138.117l13.508-4.933" stroke-width="1.2" stroke="#00f" stroke-miterlimit="10" fill="none"/><path d="M197.203 133.184l13.508-4.934" stroke-width="1.2" stroke="#000" stroke-miterlimit="10" fill="none"/><path d="M174.695 131.117h18v14h-18zm0 0" fill="#fff"/><g fill="#00f"><use xlink:href="#b" x="174.695" y="142.256"/><use xlink:href="#d" x="183.672" y="142.256"/></g><path d="M210.71 128.25l22.056 18.47M215.68 99.922l-4.97 28.328M232.766 146.72l27.02-9.865M259.785 136.855l2.48-14.167" stroke-width="1.2" stroke="#000" stroke-miterlimit="10" fill="none"/><path d="M262.266 122.688l2.484-14.165M264.75 108.523l-11.027-9.234" stroke-width="1.2" stroke="#f00" stroke-miterlimit="10" fill="none"/><path d="M253.723 99.29L242.7 90.06" stroke-width="1.2" stroke="#000" stroke-miterlimit="10" fill="none"/><path d="M259.75 101.523h10v14h-10zm0 0" fill="#fff"/><use xlink:href="#c" x="259.75" y="112.662" fill="#f00"/><path d="M242.7 90.06l-27.02 9.862" stroke-width="1.2" stroke="#000" stroke-miterlimit="10" fill="none"/></g></svg>
